ix/chart-square_linear.svg

<svg viewBox="0 0 24 24" fill="none" xmlns="http://www.w3.org/2000/svg" height="1em" width="1em">
  <path d="M10.11 11.1501H7.46005C6.83005 11.1501 6.32007 11.6601 6.32007 12.2901V17.4101H10.11V11.1501V11.1501Z" stroke="#292D32" stroke-width="1.5" stroke-miterlimit="10" stroke-linecap="round" stroke-linejoin="round"/>
  <path d="M12.7613 6.6001H11.2413C10.6113 6.6001 10.1013 7.11011 10.1013 7.74011V17.4001H13.8913V7.74011C13.8913 7.11011 13.3913 6.6001 12.7613 6.6001Z" stroke="#292D32" stroke-width="1.5" stroke-miterlimit="10" stroke-linecap="round" stroke-linejoin="round"/>
  <path d="M16.5482 12.8501H13.8982V17.4001H17.6882V13.9901C17.6782 13.3601 17.1682 12.8501 16.5482 12.8501Z" stroke="#292D32" stroke-width="1.5" stroke-miterlimit="10" stroke-linecap="round" stroke-linejoin="round"/>
  <path d="M9 22H15C20 22 22 20 22 15V9C22 4 20 2 15 2H9C4 2 2 4 2 9V15C2 20 4 22 9 22Z" stroke="#292D32" stroke-width="1.5" stroke-linecap="round" stroke-linejoin="round"/>
</svg>

<svg viewBox="0 0 24 24" fill="none" xmlns="http://www.w3.org/2000/svg" height="1em" width="1em">
  <path d="M10.11 11.15H7.46c-.63 0-1.14.51-1.14 1.14v5.12h3.79v-6.26 0Z" stroke="#292D32" stroke-width="1.5" stroke-miterlimit="10" stroke-linecap="round" stroke-linejoin="round"/>
  <path d="M12.761 6.6h-1.52c-.63 0-1.14.51-1.14 1.14v9.66h3.79V7.74c0-.63-.5-1.14-1.13-1.14Zm3.787 6.25h-2.65v4.55h3.79v-3.41c-.01-.63-.52-1.14-1.14-1.14Z" stroke="#292D32" stroke-width="1.5" stroke-miterlimit="10" stroke-linecap="round" stroke-linejoin="round"/>
  <path d="M9 22h6c5 0 7-2 7-7V9c0-5-2-7-7-7H9C4 2 2 4 2 9v6c0 5 2 7 7 7Z" stroke="#292D32" stroke-width="1.5" stroke-linecap="round" stroke-linejoin="round"/>
</svg>
